img/icon-telegram.svg

<svg xmlns="http://www.w3.org/2000/svg" width="24" height="24" fill="none"><path fill="#FF7500" d="M12 0C5.376 0 0 5.376 0 12s5.376 12 12 12 12-5.376 12-12S18.624 0 12 0Zm5.568 8.16c-.18 1.896-.96 6.504-1.356 8.628-.168.9-.504 1.2-.816 1.236-.696.06-1.224-.456-1.896-.9-1.056-.696-1.656-1.128-2.676-1.8-1.188-.78-.42-1.212.264-1.908.18-.18 3.252-2.976 3.312-3.228a.24.24 0 0 0-.06-.216c-.072-.06-.168-.036-.252-.024-.108.024-1.788 1.14-5.064 3.348-.48.324-.912.492-1.296.48-.432-.012-1.248-.24-1.86-.444-.756-.24-1.344-.372-1.296-.792.024-.216.324-.432.888-.66 3.504-1.524 5.832-2.532 6.996-3.012 3.336-1.392 4.02-1.632 4.476-1.632.096 0 .324.024.468.144.12.096.156.228.168.324-.012.072.012.288 0 .456Z"/></svg>

<svg width="24" height="24" viewBox="0 0 24 24" fill="none" xmlns="http://www.w3.org/2000/svg">
<path d="M12 0C5.376 0 0 5.376 0 12C0 18.624 5.376 24 12 24C18.624 24 24 18.624 24 12C24 5.376 18.624 0 12 0ZM17.568 8.16C17.388 10.056 16.608 14.664 16.212 16.788C16.044 17.688 15.708 17.988 15.396 18.024C14.7 18.084 14.172 17.568 13.5 17.124C12.444 16.428 11.844 15.996 10.824 15.324C9.636 14.544 10.404 14.112 11.088 13.416C11.268 13.236 14.34 10.44 14.4 10.188C14.412 10.152 14.412 10.044 14.34 9.972C14.268 9.912 14.172 9.936 14.088 9.948C13.98 9.972 12.3 11.088 9.024 13.296C8.544 13.62 8.112 13.788 7.728 13.776C7.296 13.764 6.48 13.536 5.868 13.332C5.112 13.092 4.524 12.96 4.572 12.54C4.596 12.324 4.896 12.108 5.46 11.88C8.964 10.356 11.292 9.348 12.456 8.868C15.792 7.476 16.476 7.236 16.932 7.236C17.028 7.236 17.256 7.26 17.4 7.38C17.52 7.476 17.556 7.608 17.568 7.704C17.556 7.776 17.58 7.992 17.568 8.16Z" fill="#FF7500"/>
</svg>
